X: 2
T: Ap\'o tin Ath\'ina  [Em]
T: [On the Way] from Athens
O: Asia Minor
R: syrtos
M: C
L: 1/8
K: Em
[| "Em"BcBA GFGA | BcBA GFE2 |1 BcBA GFGA | B3~c BAB2 \
:|2 "B7"FAAG G{A}FE{F}^D | "Em"E3~F E^D!^fine!E2 |]
|: "Em"z2EB B2B2 | cBcd B4 | "Am"A2A2 GFAB | "Em"BcBA GFE2 :|
|: "Em"z2EF G2A2 | BcBA GFE2 | "B7"AGGF [1 FE^DE | F8 :|[2 FEE^D | "E7"E8 |]
